Obsidian-SemiLight/actions/22s/auto-transition.svg

<svg viewBox="0 0 22 22" xmlns="http://www.w3.org/2000/svg"><path d="m5 5v1h1v-1zm2 0v1h1v-1zm2 0v1h1v-1zm3 0v1h1v-1zm2 0v1h1v-1zm2 0v1h1v-1zm-11 2v1h1v-1zm11 0v1h1v-1zm-15 2v4l3-2zm4 0v1h1v-1zm11 0v1h1v-1zm5 0-3 2 3 2zm-16 2v7h12v-7zm1 1h10v5h-10z" fill="#4d4d4d"/></svg>

<svg xmlns="http://www.w3.org/2000/svg" viewBox="0 0 22 22">
  <defs id="defs3051">
    <style type="text/css" id="current-color-scheme">
      .ColorScheme-Text {
        color:#4d4d4d;
      }
      </style>
  </defs>
 <path 
    style="fill:currentColor;fill-opacity:1;stroke:none" 
    d="M 5 5 L 5 6 L 6 6 L 6 5 L 5 5 z M 7 5 L 7 6 L 8 6 L 8 5 L 7 5 z M 9 5 L 9 6 L 10 6 L 10 5 L 9 5 z M 12 5 L 12 6 L 13 6 L 13 5 L 12 5 z M 14 5 L 14 6 L 15 6 L 15 5 L 14 5 z M 16 5 L 16 6 L 17 6 L 17 5 L 16 5 z M 5 7 L 5 8 L 6 8 L 6 7 L 5 7 z M 16 7 L 16 8 L 17 8 L 17 7 L 16 7 z M 1 9 L 1 13 L 4 11 L 1 9 z M 5 9 L 5 10 L 6 10 L 6 9 L 5 9 z M 16 9 L 16 10 L 17 10 L 17 9 L 16 9 z M 21 9 L 18 11 L 21 13 L 21 9 z M 5 11 L 5 18 L 17 18 L 17 11 L 5 11 z M 6 12 L 16 12 L 16 17 L 6 17 L 6 12 z "
    class="ColorScheme-Text"
    />  
</svg>
